src/assets/social/instagram.svg

<svg height="20" viewBox="0 0 20 20" width="20" xmlns="http://www.w3.org/2000/svg"><g fill="none"><path d="m14.5861816 0h-9.17236324c-2.98522949 0-5.41381836 2.42858887-5.41381836 5.41381836v9.17251584c0 2.9850769 2.42858887 5.4136658 5.41381836 5.4136658h9.17251584c2.9850769 0 5.4136658-2.4285889 5.4136658-5.4136658v-9.17251584c0-2.98522949-2.4285889-5.41381836-5.4138184-5.41381836zm-4.5861816 15.4685974c-3.01544187 0-5.46859742-2.4531555-5.46859742-5.4685974 0-3.01544188 2.45315555-5.46859742 5.46859742-5.46859742 3.0154419 0 5.4685974 2.45315554 5.4685974 5.46859742 0 3.0154419-2.4531555 5.4685974-5.4685974 5.4685974zm5.5993652-9.64752197c-.8911132 0-1.6159057-.72479246-1.6159057-1.61590574s.7247925-1.61605836 1.6159057-1.61605836c.8911133 0 1.6160584.72494508 1.6160584 1.61605836s-.7249451 1.61590574-1.6160584 1.61590574z" fill="#fff"/><path d="m10 5.70388793c-2.36877441 0-4.29611207 1.92718508-4.29611207 4.29611207 0 2.3687744 1.92733766 4.2961121 4.29611207 4.2961121 2.368927 0 4.2961121-1.9273377 4.2961121-4.2961121 0-2.36892699-1.9271851-4.29611207-4.2961121-4.29611207z" fill="#ebebeb"/></g></svg>

<?xml version="1.0" encoding="UTF-8"?>
<svg width="20px" height="20px" viewBox="0 0 20 20" version="1.1" xmlns="http://www.w3.org/2000/svg" xmlns:xlink="http://www.w3.org/1999/xlink">
    <!-- Generator: Sketch 53.2 (72643) - https://sketchapp.com -->
    <title>Instagram</title>
    <g id="Symbols" stroke="none" stroke-width="1" fill="none" fill-rule="evenodd">
        <g id="Footer" transform="translate(-625.000000, -105.000000)" fill-rule="nonzero">
            <g id="Group-3" transform="translate(437.000000, 50.000000)">
                <g id="Group-4" transform="translate(188.000000, 55.000000)">
                    <path d="M14.5861816,0 L5.41381836,0 C2.42858887,0 0,2.42858887 0,5.41381836 L0,14.5863342 C0,17.5714111 2.42858887,20 5.41381836,20 L14.5863342,20 C17.5714111,20 20,17.5714111 20,14.5863342 L20,5.41381836 C20,2.42858887 17.5714111,1.11022302e-15 14.5861816,0 Z M10,15.4685974 C6.98455813,15.4685974 4.53140258,13.0154419 4.53140258,10 C4.53140258,6.98455812 6.98455813,4.53140258 10,4.53140258 C13.0154419,4.53140258 15.4685974,6.98455812 15.4685974,10 C15.4685974,13.0154419 13.0154419,15.4685974 10,15.4685974 L10,15.4685974 Z M15.5993652,5.82107543 C14.708252,5.82107543 13.9834595,5.09628297 13.9834595,4.20516969 C13.9834595,3.31405641 14.708252,2.58911133 15.5993652,2.58911133 C16.4904785,2.58911133 17.2154236,3.31405641 17.2154236,4.20516969 C17.2154236,5.09628297 16.4904785,5.82107543 15.5993652,5.82107543 Z" id="Shape" fill="#FFFFFF"></path>
                    <path d="M10,5.70388793 C7.63122559,5.70388793 5.70388793,7.63107301 5.70388793,10 C5.70388793,12.3687744 7.63122559,14.2961121 10,14.2961121 C12.368927,14.2961121 14.2961121,12.3687744 14.2961121,10 C14.2961121,7.63107301 12.368927,5.70388793 10,5.70388793 Z" id="Path" fill="#EBEBEB"></path>
                </g>
            </g>
        </g>
    </g>
</svg>
